icon/ir/2x2-cell.svg

<svg stroke-width="1.5" viewBox="0 0 24 24" fill="none" xmlns="http://www.w3.org/2000/svg" height="1em" width="1em">
  <path d="M21 3.6V12H12V3H20.4C20.7314 3 21 3.26863 21 3.6Z" stroke="currentColor" stroke-width="1.5"/>
  <path d="M21 20.4V12H12V21H20.4C20.7314 21 21 20.7314 21 20.4Z" stroke="currentColor" stroke-width="1.5"/>
  <path d="M3 12V3.6C3 3.26863 3.26863 3 3.6 3H12V12H3Z" stroke="currentColor" stroke-width="1.5"/>
  <path d="M3 12V20.4C3 20.7314 3.26863 21 3.6 21H12V12H3Z" stroke="currentColor" stroke-width="1.5"/>
</svg>

<svg width="24" height="24" stroke-width="1.5" fill="none" xmlns="http://www.w3.org/2000/svg"><path d="M21 3.6V12h-9V3h8.4a.6.6 0 0 1 .6.6ZM21 20.4V12h-9v9h8.4a.6.6 0 0 0 .6-.6ZM3 12V3.6a.6.6 0 0 1 .6-.6H12v9H3ZM3 12v8.4a.6.6 0 0 0 .6.6H12v-9H3Z" stroke="currentColor"/></svg>
